X: 201
T:Vayiven Uziyahu
O:Israel
C: Yochanan Zarai 1954
Z:Seymour Shlien fy733@ncf.ca
L:1/8
M:2/4
Q:1/4=160
K:Cm
   "F"ff fe/c/| "Cm"eec2  | "F"ff fe/c/| "Cm"eec2  | 
   "F"fffz    |ze/c/"Cm"ef|g4-         | g4        |
|: "Cm"eeee   |eeez       |e>eee       |e>dee      |
   "F"ze"Cm"de|c4         |"F"ze"Cm"de |c4         :|
|: "F"ff/z/ff |"Cm"e/c/e2z| "F"ff/z/ff |"Cm"e/c/ee2|
   "Cm"eeez   |"F"fffe/c/ |"Cm"eec2    |"F"fffe/c/ |"Cm"eec2 :|



